lib/flags/m/NZL.svg

<svg xmlns="http://www.w3.org/2000/svg" fill="none" viewBox="0 0 20 15"><mask id="NZL_svg__a" width="20" height="15" x="0" y="0" mask-type="alpha" maskUnits="userSpaceOnUse"><path fill="#fff" d="M0 0H20V15H0z"/></mask><g mask="url(#NZL_svg__a)"><path fill="#2E42A5" fill-rule="evenodd" d="M0 0V15H20V0H0Z" clip-rule="evenodd"/><mask id="NZL_svg__b" width="20" height="15" x="0" y="0" mask-type="alpha" maskUnits="userSpaceOnUse"><path fill="#fff" fill-rule="evenodd" d="M0 0V15H20V0H0Z" clip-rule="evenodd"/></mask><g mask="url(#NZL_svg__b)"><path fill="#2E42A5" d="M0 0H11V9H0z"/><mask id="NZL_svg__c" width="11" height="9" x="0" y="0" mask-type="alpha" maskUnits="userSpaceOnUse"><path fill="#fff" d="M0 0H11V9H0z"/></mask><g mask="url(#NZL_svg__c)"><path fill="#F7FCFF" d="M-1.25266 8.12494L1.22294 9.21069L11.3062 1.18052L12.612 -0.432938L9.96471 -0.795827L5.852 2.6646L2.54169 4.99613L-1.25266 8.12494Z"/><path fill="#F50100" d="M-0.913757 8.88555L0.347444 9.51562L12.1431 -0.582947H10.3722L-0.913757 8.88555Z"/><path fill="#F7FCFF" d="M12.5027 8.1248L10.3056 9.52051L-0.0561562 1.18038L-1.36198 -0.433076L1.28532 -0.795966L5.39803 2.66447L8.70835 4.99599L12.5027 8.1248Z"/><path fill="#F50100" d="M12.4182 8.6707L11.157 9.30078L6.13431 4.97706L4.64518 4.49398L-1.48763 -0.427604H0.283246L6.41261 4.37716L8.04071 4.95642L12.4182 8.6707Z"/><mask id="NZL_svg__d" width="13" height="11" x="-1" y="-1" fill="#000" maskUnits="userSpaceOnUse"><path fill="#fff" d="M-1-1H12V10H-1z"/><path fill-rule="evenodd" d="M6 0H5V4H0V5H5V9H6V5H11V4H6V0Z" clip-rule="evenodd"/></mask><path fill="#F50100" fill-rule="evenodd" d="M6 0H5V4H0V5H5V9H6V5H11V4H6V0Z" clip-rule="evenodd"/><path fill="#F7FCFF" d="M5 0V-0.9375H4.0625V0H5ZM6 0H6.9375V-0.9375H6V0ZM5 4V4.9375H5.9375V4H5ZM0 4V3.0625H-0.9375V4H0ZM0 5H-0.9375V5.9375H0V5ZM5 5H5.9375V4.0625H5V5ZM5 9H4.0625V9.9375H5V9ZM6 9V9.9375H6.9375V9H6ZM6 5V4.0625H5.0625V5H6ZM11 5V5.9375H11.9375V5H11ZM11 4H11.9375V3.0625H11V4ZM6 4H5.0625V4.9375H6V4ZM5 0.9375H6V-0.9375H5V0.9375ZM5.9375 4V0H4.0625V4H5.9375ZM0 4.9375H5V3.0625H0V4.9375ZM0.9375 5V4H-0.9375V5H0.9375ZM5 4.0625H0V5.9375H5V4.0625ZM5.9375 9V5H4.0625V9H5.9375ZM6 8.0625H5V9.9375H6V8.0625ZM5.0625 5V9H6.9375V5H5.0625ZM11 4.0625H6V5.9375H11V4.0625ZM10.0625 4V5H11.9375V4H10.0625ZM6 4.9375H11V3.0625H6V4.9375ZM5.0625 0V4H6.9375V0H5.0625Z" mask="url(#NZL_svg__d)"/></g><path fill="#F50100" fill-rule="evenodd" stroke="#F7FCFF" stroke-width=".5" d="M15.5332 12.8125 14.4311 13.3919 14.6416 12.1647 13.75 11.2956 14.9822 11.1165 15.5332 10 16.0843 11.1165 17.3165 11.2956 16.4248 12.1647 16.6353 13.3919 15.5332 12.8125zM13.25 8.66864 12.4002 9.11541 12.5625 8.16914 11.875 7.499 12.8251 7.36094 13.25 6.5 13.6749 7.36094 14.625 7.499 13.9375 8.16914 14.0998 9.11541 13.25 8.66864zM17.6235 8.66623 16.7746 9.1125 16.9367 8.16729 16.25 7.49789 17.199 7.35998 17.6235 6.5 18.0479 7.35998 18.9969 7.49789 18.3102 8.16729 18.4723 9.1125 17.6235 8.66623zM15.75 5.16864 14.9002 5.61541 15.0625 4.66914 14.375 3.999 15.3251 3.86094 15.75 3 16.1749 3.86094 17.125 3.999 16.4375 4.66914 16.5998 5.61541 15.75 5.16864z" clip-rule="evenodd"/></g></g></svg>

<svg xmlns="http://www.w3.org/2000/svg" fill="none" viewBox="0 0 20 15"><g mask="url(#NZL_svg__NZ_-_New_Zealand_(Aotearoa)"><path fill="#2E42A5" fill-rule="evenodd" d="M0 0v15h20V0H0z" clip-rule="evenodd"/><g mask="url(#NZL_svg__NZ_-_New_Zealand_(Aotearoa)"><path fill="#2E42A5" d="M0 0h11v9H0z"/><g mask="url(#NZL_svg__NZ_-_New_Zealand_(Aotearoa)"><path fill="#F7FCFF" d="M-1.253 8.125L1.223 9.21l10.083-8.03 1.306-1.614-2.647-.363-4.113 3.46-3.31 2.332-3.795 3.129z"/><path fill="#F50100" d="M-.914 8.886l1.261.63L12.143-.583h-1.77L-.915 8.886z"/><path fill="#F7FCFF" d="M12.503 8.125L10.306 9.52-.056 1.18-1.362-.434l2.647-.363 4.113 3.46 3.31 2.332 3.795 3.129z"/><path fill="#F50100" d="M12.418 8.67l-1.261.63-5.023-4.323-1.489-.483-6.133-4.921H.283l6.13 4.804 1.628.58 4.377 3.714z"/><path fill="#F50100" fill-rule="evenodd" d="M6 0H5v4H0v1h5v4h1V5h5V4H6V0z" clip-rule="evenodd"/><path fill="#F7FCFF" d="M5 0v-.938h-.938V0H5zm1 0h.938v-.938H6V0zM5 4v.938h.938V4H5zM0 4v-.938h-.938V4H0zm0 1h-.938v.938H0V5zm5 0h.938v-.938H5V5zm0 4h-.938v.938H5V9zm1 0v.938h.938V9H6zm0-4v-.938h-.938V5H6zm5 0v.938h.938V5H11zm0-1h.938v-.938H11V4zM6 4h-.938v.938H6V4zM5 .937h1V-.938H5V.938zM5.938 4V0H4.063v4h1.875zM0 4.938h5V3.063H0v1.874zM.938 5V4H-.938v1H.938zM5 4.062H0v1.875h5V4.063zM5.938 9V5H4.063v4h1.875zM6 8.062H5v1.876h1V8.062zM5.062 5v4h1.875V5H5.063zM11 4.062H6v1.875h5V4.063zM10.062 4v1h1.876V4h-1.876zM6 4.938h5V3.063H6v1.874zM5.062 0v4h1.875V0H5.063z" mask="url(#NZL_svg__NZ_-_New_Zealand_(Aotearoa)"/></g><path fill="#F50100" fill-rule="evenodd" stroke="#F7FCFF" stroke-width=".5" d="M15.533 12.813l-1.102.579.21-1.227-.891-.87 1.232-.178.551-1.117.551 1.117 1.233.179-.892.869.21 1.227-1.102-.58zM13.25 8.669l-.85.446.162-.946-.687-.67.95-.138.425-.861.425.86.95.139-.688.67.163.946-.85-.446zm4.373-.003l-.848.447.162-.946-.687-.67.949-.137.424-.86.425.86.949.138-.687.67.162.945-.849-.447zM15.75 5.169l-.85.446.162-.946-.687-.67.95-.138L15.75 3l.425.86.95.139-.688.67.163.946-.85-.446z" clip-rule="evenodd"/></g></g></svg>
